X: 195
T: Amaleihuo
L: 1/8
M: 3/4
K: D
A2B2e> f d c [I:setbarnb 1]| 
B6A2 | 
B e d/ e/ B/ d/A2B2 | 
d2e d/ e/ d d A/ B/ G/ A/ | 
E2A G G A/ G/ E G | 
A2B/ d/ B/ A/G2A c | 
B2A G/ A/F2E/ F/ D | 
E4E F B, D | 
E zz6 | 
F2>A2B2e2 | 
d e B A F A E F | 
d2d A/ B/ F A E/ F/ D/ E/ | 
B,2E D/ E/ D E/ D/ B, D | 
E2F/ A/ E/ F/D2E F | 
B2A GF2E/ F/ D | 
E4E F B, D | 
E zz6 | 
F2>A2B2e2 | 
d e B A F A E F | 
d2d A/ B/ F A E/ F/ D/ E/ | 
B,2E D/ E/ D E/ D/ B, D | 
E2F/ A/ E/ F/D2E F | 
B2A GF2E/ F/ D | 
E4e f B d | 
e2z2 |]

@@@ Tune index: 8863
